packages/assets/files/fram/colors/images/Crash.svg

<svg xmlns="http://www.w3.org/2000/svg" width="800" height="637" fill="none"><path fill="#005685" d="M207.476 360.352a.93.93 0 0 1-.897-.736c-4.141-19.154-6.004-48.092-6.832-68.972a899.267 899.267 0 0 1-.598-21.203c-.069-3.499 1.242-6.791 3.703-9.3a12.866 12.866 0 0 1 9.247-3.891h69.925c.506 0 .92.414.92.921a.924.924 0 0 1-.92.921h-69.925c-3.013 0-5.82 1.174-7.936 3.338a11.09 11.09 0 0 0-3.174 7.988c.115 7.114.299 14.227.598 21.157.828 20.811 2.691 49.634 6.786 68.672a.923.923 0 0 1-.713 1.105h-.184ZM588.085 380.772H218.493c-4.301 0-7.751-5.11-10.557-15.631-.138-.484.161-.99.644-1.128.483-.138.989.161 1.127.644 2.484 9.324 5.52 14.251 8.786 14.251h369.592c8.603 0 15.618-6.999 15.618-15.586v-83.521c0-5.779-3.174-11.05-8.257-13.744l-11.524-6.147c-2.162-1.197-4.693-1.818-7.315-1.818H525.98a.924.924 0 0 1-.92-.921c0-.507.414-.921.92-.921h50.627c2.922 0 5.751.714 8.189 2.049l11.501 6.147a17.377 17.377 0 0 1 9.223 15.378v83.521c.023 9.6-7.82 17.427-17.435 17.427ZM481.564 258.115H325.405a.923.923 0 0 1-.92-.921c0-.506.414-.921.92-.921h156.159c.506 0 .92.415.92.921a.923.923 0 0 1-.92.921Z"/><path fill="#005685" d="M504.29 289.77c-13.318 0-24.175-10.843-24.175-24.196 0-13.329 10.834-24.195 24.175-24.195 13.318 0 24.175 10.843 24.175 24.195 0 13.33-10.834 24.196-24.175 24.196Zm0-46.549c-12.306 0-22.335 10.037-22.335 22.353 0 12.317 10.029 22.354 22.335 22.354 12.306 0 22.334-10.037 22.334-22.354 0-12.339-10.028-22.353-22.334-22.353ZM303.692 289.77c-13.318 0-24.175-10.843-24.175-24.196 0-13.329 10.834-24.195 24.175-24.195 13.318 0 24.175 10.843 24.175 24.195 0 13.33-10.834 24.196-24.175 24.196Zm0-46.549c-12.306 0-22.335 10.037-22.335 22.353 0 12.317 10.029 22.354 22.335 22.354 12.306 0 22.334-10.037 22.334-22.354 0-12.339-10.005-22.353-22.334-22.353ZM592.939 367.765H440.644a1.433 1.433 0 0 1-1.426-1.427v-52.581c0-.782.644-1.427 1.426-1.427h152.295c.782 0 1.426.645 1.426 1.427v52.581c-.023.783-.644 1.427-1.426 1.427Zm-151.881-1.841h151.443v-51.752H441.058v51.752ZM370.788 367.765H279.08a1.433 1.433 0 0 1-1.426-1.427v-52.581c0-.782.644-1.427 1.426-1.427h91.708c.782 0 1.426.645 1.426 1.427v52.581c-.023.783-.644 1.427-1.426 1.427Zm-91.294-1.841h90.857v-51.752h-90.857v51.752ZM270.293 365.81h-37.631a1.287 1.287 0 0 1-1.288-1.289v-98.946c0-.506.414-.921.92-.921h38.367c.506 0 .92.415.92.921v98.946c0 .713-.575 1.289-1.288 1.289Zm-37.078-1.842h36.526v-97.472h-36.526v97.472ZM225.417 380.774c-.506 0-.897-.391-.92-.898-.023-.644-1.61-65.679-3.956-78.456-.921-4.973-4.555-8.15-10.811-9.439-4.831-.99-9.477-.437-9.523-.414a.93.93 0 0 1-1.035-.806.93.93 0 0 1 .805-1.036c.207-.023 4.945-.599 10.075.437 6.992 1.428 11.248 5.203 12.283 10.912 2.369 12.915 3.933 76.063 4.002 78.756 0 .507-.391.944-.92.944ZM431.075 367.764h-51.224a1.385 1.385 0 0 1-1.381-1.381V265.55c0-.507.414-.921.921-.921h52.144c.506 0 .92.414.92.921v100.833c0 .76-.621 1.381-1.38 1.381Zm-50.764-1.841h50.304v-99.429h-50.304v99.429Z"/><path fill="#005685" d="M504.29 281.481c-8.764 0-15.894-7.136-15.894-15.907s7.13-15.908 15.894-15.908c8.763 0 15.894 7.137 15.894 15.908s-7.131 15.907-15.894 15.907Zm0-29.973c-7.752 0-14.054 6.308-14.054 14.066 0 7.758 6.302 14.066 14.054 14.066 7.751 0 14.054-6.308 14.054-14.066 0-7.758-6.303-14.066-14.054-14.066ZM303.692 281.481c-8.764 0-15.894-7.136-15.894-15.907s7.13-15.908 15.894-15.908c8.763 0 15.894 7.137 15.894 15.908s-7.108 15.907-15.894 15.907Zm0-29.973c-7.752 0-14.054 6.308-14.054 14.066 0 7.758 6.302 14.066 14.054 14.066 7.751 0 14.054-6.308 14.054-14.066 0-7.758-6.303-14.066-14.054-14.066ZM223.784 365.808h-29.557a5.359 5.359 0 0 1-5.337-4.766l-.736-6.515c-.23-2.003 1.127-4.351 2.99-5.249 1.288-.621 2.577-.437 3.52.507a.965.965 0 0 1 .207.322l1.357 3.545v.023l1.679 4.858h26.291c.253 0 .506.115.667.299.184.184.253.438.253.691l-.414 5.456c-.023.46-.437.829-.92.829Zm-31.168-15.056c-.184 0-.414.046-.667.184-1.058.506-2.116 2.026-1.955 3.384l.736 6.515a3.513 3.513 0 0 0 3.497 3.131h28.706l.276-3.614h-25.923a.943.943 0 0 1-.874-.622l-1.886-5.456-1.289-3.315c-.138-.115-.322-.207-.621-.207ZM280.46 266.496h-9.799a.923.923 0 0 1-.92-.921c0-.506.414-.921.92-.921h9.799c.506 0 .92.415.92.921a.923.923 0 0 1-.92.921ZM481.035 266.496h-49.5a.923.923 0 0 1-.92-.921c0-.506.414-.921.92-.921h49.5c.506 0 .92.415.92.921a.923.923 0 0 1-.92.921ZM724.853 380.771H88.465a.923.923 0 0 1-.92-.92c0-.507.414-.921.92-.921h636.388c.506 0 .92.414.92.921 0 .506-.414.92-.92.92Z"/></svg>

<svg width="800" height="637" viewBox="0 0 800 637" fill="none" xmlns="http://www.w3.org/2000/svg">
<path d="M207.476 360.352C207.062 360.352 206.671 360.053 206.579 359.616C202.438 340.462 200.575 311.524 199.747 290.644C199.471 283.714 199.264 276.578 199.149 269.441C199.08 265.942 200.391 262.65 202.852 260.141C205.313 257.631 208.603 256.25 212.099 256.25H282.024C282.53 256.25 282.944 256.664 282.944 257.171C282.944 257.677 282.53 258.092 282.024 258.092H212.099C209.086 258.092 206.279 259.266 204.163 261.43C202.07 263.571 200.943 266.402 200.989 269.418C201.104 276.532 201.288 283.645 201.587 290.575C202.415 311.386 204.278 340.209 208.373 359.247C208.488 359.754 208.166 360.237 207.66 360.352C207.614 360.352 207.545 360.352 207.476 360.352Z" fill="#005685"/>
<path d="M588.085 380.772H218.493C214.192 380.772 210.742 375.662 207.936 365.141C207.798 364.657 208.097 364.151 208.58 364.013C209.063 363.875 209.569 364.174 209.707 364.657C212.191 373.981 215.227 378.908 218.493 378.908H588.085C596.688 378.908 603.703 371.909 603.703 363.322V279.801C603.703 274.022 600.529 268.751 595.446 266.057L583.922 259.91C581.76 258.713 579.229 258.092 576.607 258.092H525.98C525.474 258.092 525.06 257.677 525.06 257.171C525.06 256.664 525.474 256.25 525.98 256.25H576.607C579.529 256.25 582.358 256.964 584.796 258.299L596.297 264.446C602.001 267.484 605.52 273.378 605.52 279.824V363.345C605.543 372.945 597.7 380.772 588.085 380.772Z" fill="#005685"/>
<path d="M481.564 258.115H325.405C324.899 258.115 324.485 257.701 324.485 257.194C324.485 256.688 324.899 256.273 325.405 256.273H481.564C482.07 256.273 482.484 256.688 482.484 257.194C482.484 257.701 482.07 258.115 481.564 258.115Z" fill="#005685"/>
<path d="M504.29 289.77C490.972 289.77 480.115 278.927 480.115 265.574C480.115 252.245 490.949 241.379 504.29 241.379C517.608 241.379 528.465 252.222 528.465 265.574C528.465 278.904 517.631 289.77 504.29 289.77ZM504.29 243.221C491.984 243.221 481.955 253.258 481.955 265.574C481.955 277.891 491.984 287.928 504.29 287.928C516.596 287.928 526.624 277.891 526.624 265.574C526.624 253.235 516.596 243.221 504.29 243.221Z" fill="#005685"/>
<path d="M303.692 289.77C290.374 289.77 279.517 278.927 279.517 265.574C279.517 252.245 290.351 241.379 303.692 241.379C317.01 241.379 327.867 252.222 327.867 265.574C327.867 278.904 317.033 289.77 303.692 289.77ZM303.692 243.221C291.386 243.221 281.357 253.258 281.357 265.574C281.357 277.891 291.386 287.928 303.692 287.928C315.998 287.928 326.026 277.891 326.026 265.574C326.026 253.235 316.021 243.221 303.692 243.221Z" fill="#005685"/>
<path d="M592.939 367.765H440.644C439.862 367.765 439.218 367.121 439.218 366.338V313.757C439.218 312.975 439.862 312.33 440.644 312.33H592.939C593.721 312.33 594.365 312.975 594.365 313.757V366.338C594.342 367.121 593.721 367.765 592.939 367.765ZM441.058 365.924H592.501V314.172H441.058V365.924Z" fill="#005685"/>
<path d="M370.788 367.765H279.08C278.298 367.765 277.654 367.121 277.654 366.338V313.757C277.654 312.975 278.298 312.33 279.08 312.33H370.788C371.57 312.33 372.214 312.975 372.214 313.757V366.338C372.191 367.121 371.57 367.765 370.788 367.765ZM279.494 365.924H370.351V314.172H279.494V365.924Z" fill="#005685"/>
<path d="M270.293 365.81H232.662C231.949 365.81 231.374 365.234 231.374 364.521V265.575C231.374 265.069 231.788 264.654 232.294 264.654H270.661C271.167 264.654 271.581 265.069 271.581 265.575V364.521C271.581 365.234 271.006 365.81 270.293 365.81ZM233.215 363.968H269.741V266.496H233.215V363.968V363.968Z" fill="#005685"/>
<path d="M225.417 380.774C224.911 380.774 224.52 380.383 224.497 379.876C224.474 379.232 222.887 314.197 220.541 301.42C219.62 296.447 215.986 293.27 209.73 291.981C204.899 290.991 200.253 291.544 200.207 291.567C199.701 291.636 199.241 291.267 199.172 290.761C199.103 290.254 199.471 289.794 199.977 289.725C200.184 289.702 204.922 289.126 210.052 290.162C217.044 291.59 221.3 295.365 222.335 301.074C224.704 313.989 226.268 377.137 226.337 379.83C226.337 380.337 225.946 380.774 225.417 380.774Z" fill="#005685"/>
<path d="M431.075 367.764H379.851C379.092 367.764 378.47 367.143 378.47 366.383V265.55C378.47 265.043 378.884 264.629 379.391 264.629H431.535C432.041 264.629 432.455 265.043 432.455 265.55V366.383C432.455 367.143 431.834 367.764 431.075 367.764ZM380.311 365.923H430.615V266.494H380.311V365.923Z" fill="#005685"/>
<path d="M504.29 281.481C495.526 281.481 488.396 274.345 488.396 265.574C488.396 256.803 495.526 249.666 504.29 249.666C513.053 249.666 520.184 256.803 520.184 265.574C520.184 274.345 513.053 281.481 504.29 281.481ZM504.29 251.508C496.538 251.508 490.236 257.816 490.236 265.574C490.236 273.332 496.538 279.64 504.29 279.64C512.041 279.64 518.344 273.332 518.344 265.574C518.344 257.816 512.041 251.508 504.29 251.508Z" fill="#005685"/>
<path d="M303.692 281.481C294.928 281.481 287.798 274.345 287.798 265.574C287.798 256.803 294.928 249.666 303.692 249.666C312.455 249.666 319.586 256.803 319.586 265.574C319.586 274.345 312.478 281.481 303.692 281.481ZM303.692 251.508C295.94 251.508 289.638 257.816 289.638 265.574C289.638 273.332 295.94 279.64 303.692 279.64C311.443 279.64 317.746 273.332 317.746 265.574C317.746 257.816 311.443 251.508 303.692 251.508Z" fill="#005685"/>
<path d="M223.784 365.808H194.227C191.489 365.808 189.189 363.759 188.89 361.042L188.154 354.527C187.924 352.524 189.281 350.176 191.144 349.278C192.432 348.657 193.721 348.841 194.664 349.785C194.756 349.877 194.825 349.992 194.871 350.107L196.228 353.652V353.675L197.907 358.533H224.198C224.451 358.533 224.704 358.648 224.865 358.832C225.049 359.016 225.118 359.27 225.118 359.523L224.704 364.979C224.681 365.439 224.267 365.808 223.784 365.808ZM192.616 350.752C192.432 350.752 192.202 350.798 191.949 350.936C190.891 351.442 189.833 352.962 189.994 354.32L190.73 360.835C190.937 362.631 192.432 363.966 194.227 363.966H222.933L223.209 360.352H197.286C196.895 360.352 196.55 360.098 196.412 359.73L194.526 354.274L193.237 350.959C193.099 350.844 192.915 350.752 192.616 350.752Z" fill="#005685"/>
<path d="M280.46 266.496H270.661C270.155 266.496 269.741 266.082 269.741 265.575C269.741 265.069 270.155 264.654 270.661 264.654H280.46C280.966 264.654 281.38 265.069 281.38 265.575C281.38 266.082 280.966 266.496 280.46 266.496Z" fill="#005685"/>
<path d="M481.035 266.496H431.535C431.029 266.496 430.615 266.082 430.615 265.575C430.615 265.069 431.029 264.654 431.535 264.654H481.035C481.541 264.654 481.955 265.069 481.955 265.575C481.955 266.082 481.541 266.496 481.035 266.496Z" fill="#005685"/>
<path d="M724.853 380.771H88.4646C87.9586 380.771 87.5446 380.357 87.5446 379.851C87.5446 379.344 87.9586 378.93 88.4646 378.93H724.853C725.359 378.93 725.773 379.344 725.773 379.851C725.773 380.357 725.359 380.771 724.853 380.771Z" fill="#005685"/>
</svg>
